icons/svgs/xmark-large-solid.svg

<svg width="24" height="24" viewBox="0 0 24 24" fill="none" xmlns="http://www.w3.org/2000/svg">
<path d="M18.6016 3.64062C19.0703 3.13281 19.8906 3.13281 20.3594 3.64062C20.8672 4.10938 20.8672 4.92969 20.3594 5.39844L13.7578 12L20.3594 18.6406C20.8672 19.1094 20.8672 19.9297 20.3594 20.3984C19.8906 20.9062 19.0703 20.9062 18.6016 20.3984L12 13.7969L5.35938 20.3984C4.89062 20.9062 4.07031 20.9062 3.60156 20.3984C3.09375 19.9297 3.09375 19.1094 3.60156 18.6406L10.2031 12L3.60156 5.39844C3.09375 4.92969 3.09375 4.10938 3.60156 3.64062C4.07031 3.13281 4.89062 3.13281 5.35938 3.64062L12 10.2422L18.6016 3.64062Z" fill="black"/>
</svg>

<svg xmlns="http://www.w3.org/2000/svg" width="24" height="24" fill="currentColor" class="icon-xmark-large-solid" viewBox="0 0 24 24">
  <mask id="a" width="18" height="18" x="3" y="3" maskUnits="userSpaceOnUse" style="mask-type:alpha">
    <path d="M18.602 3.64a1.205 1.205 0 0 1 1.757 0c.508.47.508 1.29 0 1.758L13.758 12l6.601 6.64c.508.47.508 1.29 0 1.758a1.205 1.205 0 0 1-1.757 0L12 13.797l-6.64 6.601a1.205 1.205 0 0 1-1.758 0 1.205 1.205 0 0 1 0-1.757L10.203 12 3.602 5.398a1.205 1.205 0 0 1 0-1.757 1.205 1.205 0 0 1 1.757 0L12 10.242z"/>
  </mask>
  <g mask="url(#a)">
    <path d="M0 0h24v24H0z"/>
  </g>
</svg>
